svg/color/blank.svg

<?xml version="1.0" encoding="UTF-8" ?>
<!DOCTYPE svg PUBLIC "-//W3C//DTD SVG 1.1//EN" "http://www.w3.org/Graphics/SVG/1.1/DTD/svg11.dtd">
<svg width="250pt" height="250pt" viewBox="0 0 250 250" version="1.1" xmlns="http://www.w3.org/2000/svg">
<g id="#ffffffff">
<path fill="#ffffff" opacity="1.00" d=" M 0.00 0.00 L 119.64 0.00 C 88.42 1.35 57.92 14.78 36.04 37.12 C 14.51 58.68 1.67 88.34 0.00 118.71 L 0.00 0.00 Z" />
<path fill="#ffffff" opacity="1.00" d=" M 127.71 0.00 L 250.00 0.00 L 250.00 250.00 L 0.00 250.00 L 0.00 129.43 C 0.99 155.21 10.07 180.65 25.89 201.05 C 44.39 225.21 71.99 242.25 101.95 247.70 C 126.22 252.35 151.84 249.39 174.50 239.57 C 200.41 228.41 222.28 208.15 235.40 183.18 C 248.31 158.84 252.84 130.13 247.89 103.01 C 243.03 75.00 228.11 48.88 206.53 30.38 C 184.86 11.48 156.45 0.56 127.71 0.00 Z" />
<path fill="#ffffff" opacity="1.00" d=" M 61.16 63.99 C 61.23 62.90 61.33 61.81 61.47 60.73 C 64.27 61.35 67.15 61.17 69.99 61.17 C 109.57 61.16 149.14 61.16 188.72 61.15 C 188.72 103.68 188.73 146.20 188.71 188.73 C 146.20 188.71 103.68 188.72 61.17 188.73 C 61.09 173.49 61.32 158.24 61.05 143.00 C 61.23 139.33 61.22 135.67 61.05 132.00 C 61.31 109.33 61.09 86.66 61.16 63.99 Z" />
</g>
<g id="#000000ff">
<path fill="#000000" opacity="1.00" d=" M 119.64 0.00 L 127.71 0.00 C 156.45 0.56 184.86 11.48 206.53 30.38 C 228.11 48.88 243.03 75.00 247.89 103.01 C 252.84 130.13 248.31 158.84 235.40 183.18 C 222.28 208.15 200.41 228.41 174.50 239.57 C 151.84 249.39 126.22 252.35 101.95 247.70 C 71.99 242.25 44.39 225.21 25.89 201.05 C 10.07 180.65 0.99 155.21 0.00 129.43 L 0.00 118.71 C 1.67 88.34 14.51 58.68 36.04 37.12 C 57.92 14.78 88.42 1.35 119.64 0.00 M 61.16 63.99 C 61.09 86.66 61.31 109.33 61.05 132.00 C 61.22 135.67 61.23 139.33 61.05 143.00 C 61.32 158.24 61.09 173.49 61.17 188.73 C 103.68 188.72 146.20 188.71 188.71 188.73 C 188.73 146.20 188.72 103.68 188.72 61.15 C 149.14 61.16 109.57 61.16 69.99 61.17 C 67.15 61.17 64.27 61.35 61.47 60.73 C 61.33 61.81 61.23 62.90 61.16 63.99 Z" />
</g>
</svg>

<?xml version="1.0" encoding="utf-8"?>
<!-- Generator: Adobe Illustrator 26.0.3, SVG Export Plug-In . SVG Version: 6.00 Build 0)  -->
<svg version="1.1" id="Layer_1" xmlns="http://www.w3.org/2000/svg" xmlns:xlink="http://www.w3.org/1999/xlink" x="0px" y="0px"
	 viewBox="0 0 250 250" style="enable-background:new 0 0 250 250;" xml:space="preserve">
<style type="text/css">
	.st0{fill:#FFFFFF;}
</style>
<g id="_x23_ffffffff">
	<path class="st0" d="M61.2,64c0.1-1.1,0.2-2.2,0.3-3.3c2.8,0.6,5.7,0.4,8.5,0.4c39.6,0,79.2,0,118.7,0c0,42.5,0,85,0,127.6
		c-42.5,0-85,0-127.5,0c-0.1-15.2,0.2-30.5-0.1-45.7c0.2-3.7,0.2-7.3,0-11C61.3,109.3,61.1,86.7,61.2,64z"/>
</g>
<g id="_x23_000000ff">
	<path d="M119.6,0h8.1c28.7,0.6,57.2,11.5,78.8,30.4C228.1,48.9,243,75,247.9,103c4.9,27.1,0.4,55.8-12.5,80.2
		c-13.1,25-35,45.2-60.9,56.4c-22.7,9.8-48.3,12.8-72.6,8.1c-30-5.4-57.6-22.5-76.1-46.6C10.1,180.6,1,155.2,0,129.4v-10.7
		c1.7-30.4,14.5-60,36-81.6C57.9,14.8,88.4,1.4,119.6,0 M61.2,64c-0.1,22.7,0.2,45.3-0.1,68c0.2,3.7,0.2,7.3,0,11
		c0.3,15.2,0,30.5,0.1,45.7c42.5,0,85,0,127.5,0c0-42.5,0-85,0-127.6c-39.6,0-79.2,0-118.7,0c-2.8,0-5.7,0.2-8.5-0.4
		C61.3,61.8,61.2,62.9,61.2,64z"/>
</g>
</svg>
